X: 100281
T: PADDY O' SNAP JIG -- Contre Dance
R: slip jig
B: K\"ohler's Violin Repository, v.3, 1885 p.206 #2
F: http://www.archive.org/details/klersviolinrepos03rugg
Z: 2012 John Chambers <jc:trillian.mit.edu>
M: 9/8
L: 1/8
K: D
|: (.vf2.d) {e}dcd fed | (.g2.e) efd cBA | (.f2.d) {e}dcd fed | efg ABc d3 :|
|: {A}(v.a2.A) ABG FAd | (.B2.e) efd efg | {A}(.a2.A) ABG FGA | efg ABc d3 :|

%%sep 2 1 500

